assets/svg/icon-large-content-innovation-series-white.svg

<?xml version="1.0" encoding="UTF-8" standalone="no"?>
<svg width="43px" height="63px" viewBox="0 0 43 63" version="1.1" xmlns="http://www.w3.org/2000/svg" xmlns:xlink="http://www.w3.org/1999/xlink">
    <!-- Generator: Sketch 3.8.3 (29802) - http://www.bohemiancoding.com/sketch -->
    <title>white/icon-large-content-innovation-series-white</title>
    <desc>Created with Sketch.</desc>
    <defs></defs>
    <g id="white" stroke="none" stroke-width="1" fill="none" fill-rule="evenodd">
        <g id="icons,-large-detailed-white" transform="translate(-638.000000, -581.000000)" fill="#FFFFFF">
            <g id="white/icon-large-content-innovation-series-white" transform="translate(638.000000, 581.000000)">
                <g id="icon-content-innovation-series">
                    <g id="Page-1">
                        <g id="solo-icons">
                            <g id="icon-content-innovation-series">
                                <path d="M18.9512882,32.2522617 L12.8072882,28.5665834 L13.4049231,29.622014 L13.4049231,18.5384615 L12.8004143,19.5979854 L21.7801066,14.290293 L20.5316351,14.2926761 L29.5900966,19.6003684 L28.9815385,18.5384615 L28.9815385,29.5384615 L29.583421,28.4804944 L20.5249595,33.8651098 L19.9230769,34.2228864 L19.9230769,34.9230769 L19.9230769,45.8454582 C19.9230769,45.7527054 19.9130775,45.7692308 20.3659958,45.7692308 L13.7692308,45.7692308 C13.9753771,45.7376647 14.0348658,45.8486716 14.0346062,45.8219086 C13.9965573,40.3914165 12.0309833,37.1429722 8.29697731,33.6104717 C4.73618251,30.2403773 2.69230769,25.6254619 2.69230769,20.6923077 C2.69230769,10.7578009 10.9513727,2.69230769 21.1538462,2.69230769 C31.3563196,2.69230769 39.6153846,10.7578009 39.6153846,20.6923077 C39.6153846,25.6320846 37.5659994,30.2524004 33.9962991,33.6233591 C30.1572452,37.248675 28.5160705,40.1981486 28.3610544,45.7998191 C28.3608457,45.8632274 28.4087098,45.7692308 28.9362462,45.7692308 L28.1501191,45.7692308 C26.8894219,45.7692308 26.1332229,46.914125 26.1332229,48.2307692 C26.1332229,49.515628 25.8753928,50.6923077 26.0304401,50.6923077 L17.4556731,50.6923077 C15.4208513,50.6923077 13.7790769,52.3402339 13.7790769,54.3846154 C13.7790769,56.4314698 15.4269185,58.0769231 17.4894773,58.0769231 L22.3566765,58.0769231 C23.0533995,58.0769231 23.6090957,58.6260102 23.610464,59.3101538 C23.6118317,59.9940212 23.0707968,60.5384615 22.3872884,60.5384615 L17.4618526,60.5384615 L17.4618526,63 L22.3872884,63 C24.4345525,63 26.0760834,61.3481371 26.0719975,59.3052308 C26.0679031,57.258025 24.4054911,55.6153846 22.3566765,55.6153846 L17.4894773,55.6153846 C16.7855901,55.6153846 16.2406154,55.0711998 16.2406154,54.3846154 C16.2406154,53.6976474 16.7823866,53.1538462 17.4556731,53.1538462 L26.0304401,53.1538462 C27.3729348,53.1538462 28.058757,52.1561971 28.37474,50.71412 C28.5414545,49.9532719 28.5947614,49.1479108 28.5947614,48.2307692 C28.5947614,48.1110579 28.5156924,48.2307692 28.1501191,48.2307692 L28.9362462,48.2307692 C30.2216839,48.2307692 30.8363697,47.0236337 30.8220347,45.8192177 C30.9560788,41.0102169 32.281379,38.6284242 35.6863367,35.4130363 C39.7418577,31.5833048 42.0769231,26.3189263 42.0769231,20.6923077 C42.0769231,9.38509337 32.7028952,0.230769231 21.1538462,0.230769231 C9.60479715,0.230769231 0.230769231,9.38509337 0.230769231,20.6923077 C0.230769231,26.3113402 2.55952696,31.5694998 6.60513127,35.3984394 C9.89913087,38.5146785 11.5408196,41.2278474 11.5731559,45.8424723 C11.585707,47.1366788 12.2682417,48.4102982 13.9089626,48.2228115 L20.3659958,48.2307692 C21.6012402,48.2307692 22.3846154,46.9361358 22.3846154,45.8454582 L22.3846154,34.9230769 L21.7827329,35.981044 L30.8411944,30.5964287 L31.4430769,30.238652 L31.4430769,29.5384615 L31.4430769,18.5384615 L31.4430769,17.8331317 L30.8345188,17.4765546 L21.7760572,12.1688623 L21.1511202,11.8026883 L20.5275857,12.1712454 L11.5478934,17.4789377 L10.9433846,17.8362491 L10.9433846,18.5384615 L10.9433846,29.622014 L10.9433846,30.3189339 L11.5410195,30.6774446 L17.6850195,34.3631229 L18.9512882,32.2522617 L18.9512882,32.2522617 Z" id="Lightbulb-Icon"></path>
                            </g>
                        </g>
                    </g>
                </g>
            </g>
        </g>
    </g>
</svg>

<svg width="43" height="63" viewBox="0 0 43 63" xmlns="http://www.w3.org/2000/svg"><title>white/icon-large-content-innovation-series-white</title><path d="M18.951 32.252l-6.144-3.685.598 1.055V18.538l-.605 1.06 8.98-5.308-1.248.003L29.59 19.6l-.608-1.062v11l.601-1.058-9.058 5.385-.602.358v11.622c0-.092-.01-.076.443-.076h-6.597c.206-.031.266.08.266.053-.038-5.43-2.004-8.679-5.738-12.212-3.56-3.37-5.605-7.985-5.605-12.918 0-9.934 8.26-18 18.462-18s18.461 8.066 18.461 18c0 4.94-2.049 9.56-5.619 12.931-3.839 3.626-5.48 6.575-5.635 12.177 0 .063.048-.03.575-.03h-.786c-1.26 0-2.017 1.144-2.017 2.46 0 1.286-.258 2.462-.103 2.462h-8.574a3.678 3.678 0 0 0-3.677 3.693 3.688 3.688 0 0 0 3.71 3.692h4.868c.696 0 1.252.549 1.253 1.233a1.216 1.216 0 0 1-1.223 1.228h-4.925V63h4.925a3.678 3.678 0 0 0 3.685-3.695 3.701 3.701 0 0 0-3.715-3.69h-4.868a1.227 1.227 0 0 1-1.248-1.23c0-.687.541-1.231 1.215-1.231h8.574c1.343 0 2.029-.998 2.345-2.44.166-.76.22-1.566.22-2.483 0-.12-.08 0-.445 0h.786c1.286 0 1.9-1.207 1.886-2.412.134-4.809 1.46-7.19 4.864-10.406 4.056-3.83 6.39-9.094 6.39-14.72C42.077 9.384 32.704.23 21.155.23 9.604.23.23 9.385.23 20.692c0 5.62 2.329 10.877 6.374 14.706 3.294 3.117 4.936 5.83 4.968 10.444.013 1.295.695 2.568 2.336 2.38l6.457.009c1.235 0 2.019-1.295 2.019-2.386V34.923l-.602 1.058 9.058-5.385.602-.357V17.833l-.608-.356-9.059-5.308-.625-.366-.623.368-8.98 5.308-.605.357V30.32l.598.358 6.144 3.686 1.266-2.11z" fill="#FFF" fill-rule="evenodd"/></svg>
